X: 1
T: Furze Bush
T: Longford Spinster
S: "Music from Ireland 3" (Bulmer & Sharpley)
Z: B.Black [http://www.capeirish.com]
R: reel
M: 4/4
L: 1/8
F:http://jc.tzo.net/~jc/music/abc/mirror/redhawk.org/zouki/f.abc
K: D
fe|: dBBA B3c|dB B2 fgef|dBBA BABd|ABde fdef|
dB B2 FB B2|dB B2 def^g|aAA^G A2 FB|ABde fdef||
dcdf edfe|dafa gefe|dafa eg g2|defa gefe|
dafa gefe|dafa g2 dg|bgaf gfed|f2 af gfed||
fA A2 FAEF|Dafa gfed|gbba b2 ba|gbaf gfed|
fA A2 FAde|fdaf g2 dg|bgaf gfed|f2 af gfed||
fa a2 fa a2|faaf gfed|gb b2 gb b2|gbaf gbed|
fa a2 fa a2|faaf g2 dg|bgaf gfed|f2 af gfef||

